world_stage/static/flags/rect/mrt.svg

<svg height="800" viewBox="0 0 1200 800" width="1200" xmlns="http://www.w3.org/2000/svg" xmlns:xlink="http://www.w3.org/1999/xlink"><clipPath id="a"><path d="m0 0h900v600h-900z" transform="translate(-450.00001 -568.75001)"/></clipPath><clipPath id="b"><path d="m0 0h900v600h-900z" transform="translate(-450.00001 -612.50002)"/></clipPath><clipPath id="c"><path d="m0 0h900v600h-900z" transform="translate(-450.00001 -500.00002)"/></clipPath><clipPath id="d"><path d="m0 0h900v600h-900z" transform="translate(-450.00001 -500.00002)"/></clipPath><clipPath id="e"><path d="m0 0h900v600h-900z" transform="translate(-521.32912 -448.17631)"/></clipPath><clipPath id="f"><path d="m0 0h900v600h-900z" transform="translate(-521.32912 -448.17631)"/></clipPath><clipPath id="g"><path d="m0 0h900v600h-900z" transform="translate(-494.08401 -364.32371)"/></clipPath><clipPath id="h"><path d="m0 0h900v600h-900z" transform="translate(-494.08401 -364.32371)"/></clipPath><clipPath id="i"><path d="m0 0h900v600h-900z" transform="translate(-405.91601 -364.32371)"/></clipPath><clipPath id="j"><path d="m0 0h900v600h-900z" transform="translate(-405.91601 -364.32371)"/></clipPath><clipPath id="k"><path d="m0 0h900v600h-900z" transform="translate(-378.67091 -448.17631)"/></clipPath><clipPath id="l"><path d="m0 0h900v600h-900z" transform="translate(-378.67091 -448.17631)"/></clipPath><path d="m0 0h900v600h-900z" fill="#006233" transform="matrix(1.3333333 0 0 -1.3333333 0 800)"/><path clip-path="url(#a)" d="m0 0c107.005 0 193.75-86.745 193.75-193.75s-86.745-193.75-193.75-193.75-193.75 86.745-193.75 193.75 86.745 193.75 193.75 193.75" fill="#ffc400" transform="matrix(1.3333333 0 0 -1.3333333 600 41.666667)"/><path clip-path="url(#b)" d="m0 0c103.554 0 187.5-83.947 187.5-187.5s-83.946-187.5-187.5-187.5c-103.553 0-187.5 83.947-187.5 187.5s83.947 187.5 187.5 187.5" fill="#006233" transform="matrix(1.3333333 0 0 -1.3333333 600 -16.666667)"/><g fill="#ffc400"><path clip-path="url(#c)" d="m0 0-23.176-71.329 35.664-11.588" transform="matrix(1.3333333 0 0 -1.3333333 600 133.33333)"/><path clip-path="url(#d)" d="m0 0 23.177-71.329-35.665-11.588" transform="matrix(1.3333333 0 0 -1.3333333 600 133.33333)"/><path clip-path="url(#e)" d="m0 0h-75v-37.5" transform="matrix(1.3333333 0 0 -1.3333333 695.10547 202.4316)"/><path clip-path="url(#f)" d="m0 0-60.676-44.084-22.042 30.338" transform="matrix(1.3333333 0 0 -1.3333333 695.10547 202.4316)"/><path clip-path="url(#g)" d="m0 0-23.177 71.329-35.664-11.588" transform="matrix(1.3333333 0 0 -1.3333333 658.77867 314.23507)"/><path clip-path="url(#h)" d="m0 0-60.676 44.084 22.041 30.338" transform="matrix(1.3333333 0 0 -1.3333333 658.77867 314.23507)"/><path clip-path="url(#i)" d="m0 0 60.677 44.084-22.043 30.338" transform="matrix(1.3333333 0 0 -1.3333333 541.22133 314.23507)"/><path clip-path="url(#j)" d="m0 0 23.176 71.329 35.665-11.588" transform="matrix(1.3333333 0 0 -1.3333333 541.22133 314.23507)"/><path clip-path="url(#k)" d="m0 0 60.676-44.084 22.042 30.338" transform="matrix(1.3333333 0 0 -1.3333333 504.89453 202.4316)"/><path clip-path="url(#l)" d="m0 0h75v-37.5" transform="matrix(1.3333333 0 0 -1.3333333 504.89453 202.4316)"/></g></svg>

<?xml version="1.0" encoding="UTF-8" standalone="no"?>
<!-- Created with Inkscape (http://www.inkscape.org/) -->

<svg
   version="1.1"
   id="svg1"
   width="1200"
   height="800"
   viewBox="0 0 1200 800"
   sodipodi:docname="mr.ai"
   xmlns:inkscape="http://www.inkscape.org/namespaces/inkscape"
   xmlns:sodipodi="http://sodipodi.sourceforge.net/DTD/sodipodi-0.dtd"
   xmlns="http://www.w3.org/2000/svg"
   xmlns:svg="http://www.w3.org/2000/svg">
  <defs
     id="defs1">
    <clipPath
       clipPathUnits="userSpaceOnUse"
       id="clipPath3">
      <path
         d="M 0,0 H 900 V 600 H 0 Z"
         transform="translate(-450.00001,-568.75001)"
         id="path3" />
    </clipPath>
    <clipPath
       clipPathUnits="userSpaceOnUse"
       id="clipPath5">
      <path
         d="M 0,0 H 900 V 600 H 0 Z"
         transform="translate(-450.00001,-612.50002)"
         id="path5" />
    </clipPath>
    <clipPath
       clipPathUnits="userSpaceOnUse"
       id="clipPath7">
      <path
         d="M 0,0 H 900 V 600 H 0 Z"
         transform="translate(-450.00001,-500.00002)"
         id="path7" />
    </clipPath>
    <clipPath
       clipPathUnits="userSpaceOnUse"
       id="clipPath9">
      <path
         d="M 0,0 H 900 V 600 H 0 Z"
         transform="translate(-450.00001,-500.00002)"
         id="path9" />
    </clipPath>
    <clipPath
       clipPathUnits="userSpaceOnUse"
       id="clipPath11">
      <path
         d="M 0,0 H 900 V 600 H 0 Z"
         transform="translate(-521.32912,-448.17631)"
         id="path11" />
    </clipPath>
    <clipPath
       clipPathUnits="userSpaceOnUse"
       id="clipPath13">
      <path
         d="M 0,0 H 900 V 600 H 0 Z"
         transform="translate(-521.32912,-448.17631)"
         id="path13" />
    </clipPath>
    <clipPath
       clipPathUnits="userSpaceOnUse"
       id="clipPath15">
      <path
         d="M 0,0 H 900 V 600 H 0 Z"
         transform="translate(-494.08401,-364.32371)"
         id="path15" />
    </clipPath>
    <clipPath
       clipPathUnits="userSpaceOnUse"
       id="clipPath17">
      <path
         d="M 0,0 H 900 V 600 H 0 Z"
         transform="translate(-494.08401,-364.32371)"
         id="path17" />
    </clipPath>
    <clipPath
       clipPathUnits="userSpaceOnUse"
       id="clipPath19">
      <path
         d="M 0,0 H 900 V 600 H 0 Z"
         transform="translate(-405.91601,-364.32371)"
         id="path19" />
    </clipPath>
    <clipPath
       clipPathUnits="userSpaceOnUse"
       id="clipPath21">
      <path
         d="M 0,0 H 900 V 600 H 0 Z"
         transform="translate(-405.91601,-364.32371)"
         id="path21" />
    </clipPath>
    <clipPath
       clipPathUnits="userSpaceOnUse"
       id="clipPath23">
      <path
         d="M 0,0 H 900 V 600 H 0 Z"
         transform="translate(-378.67091,-448.17631)"
         id="path23" />
    </clipPath>
    <clipPath
       clipPathUnits="userSpaceOnUse"
       id="clipPath25">
      <path
         d="M 0,0 H 900 V 600 H 0 Z"
         transform="translate(-378.67091,-448.17631)"
         id="path25" />
    </clipPath>
  </defs>
  <sodipodi:namedview
     id="namedview1"
     pagecolor="#ffffff"
     bordercolor="#000000"
     borderopacity="0.25"
     inkscape:showpageshadow="2"
     inkscape:pageopacity="0.0"
     inkscape:pagecheckerboard="0"
     inkscape:deskcolor="#d1d1d1">
    <inkscape:page
       x="0"
       y="0"
       inkscape:label="1"
       id="page1"
       width="1200"
       height="800"
       margin="0"
       bleed="0" />
  </sodipodi:namedview>
  <g
     id="layer-MC0"
     inkscape:groupmode="layer"
     inkscape:label="Layer 1">
    <path
       id="path1"
       d="M 0,0 H 900 V 600 H 0 Z"
       style="fill:#006233;fill-opacity:1;fill-rule:nonzero;stroke:none"
       transform="matrix(1.3333333,0,0,-1.3333333,0,800)" />
    <path
       id="path2"
       d="M 0,0 C 107.005,0 193.75,-86.745 193.75,-193.75 193.75,-300.755 107.005,-387.5 0,-387.5 c -107.005,0 -193.75,86.745 -193.75,193.75 C -193.75,-86.745 -107.005,0 0,0"
       style="fill:#ffc400;fill-opacity:1;fill-rule:nonzero;stroke:none"
       transform="matrix(1.3333333,0,0,-1.3333333,600,41.666667)"
       clip-path="url(#clipPath3)" />
    <path
       id="path4"
       d="M 0,0 C 103.554,0 187.5,-83.947 187.5,-187.5 187.5,-291.053 103.554,-375 0,-375 c -103.553,0 -187.5,83.947 -187.5,187.5 C -187.5,-83.947 -103.553,0 0,0"
       style="fill:#006233;fill-opacity:1;fill-rule:nonzero;stroke:none"
       transform="matrix(1.3333333,0,0,-1.3333333,600,-16.666667)"
       clip-path="url(#clipPath5)" />
    <path
       id="path6"
       d="M 0,0 -23.176,-71.329 12.488,-82.917"
       style="fill:#ffc400;fill-opacity:1;fill-rule:nonzero;stroke:none"
       transform="matrix(1.3333333,0,0,-1.3333333,600,133.33333)"
       clip-path="url(#clipPath7)" />
    <path
       id="path8"
       d="M 0,0 23.177,-71.329 -12.488,-82.917"
       style="fill:#ffc400;fill-opacity:1;fill-rule:nonzero;stroke:none"
       transform="matrix(1.3333333,0,0,-1.3333333,600,133.33333)"
       clip-path="url(#clipPath9)" />
    <path
       id="path10"
       d="M 0,0 H -75 V -37.5"
       style="fill:#ffc400;fill-opacity:1;fill-rule:nonzero;stroke:none"
       transform="matrix(1.3333333,0,0,-1.3333333,695.10547,202.4316)"
       clip-path="url(#clipPath11)" />
    <path
       id="path12"
       d="m 0,0 -60.676,-44.084 -22.042,30.338"
       style="fill:#ffc400;fill-opacity:1;fill-rule:nonzero;stroke:none"
       transform="matrix(1.3333333,0,0,-1.3333333,695.10547,202.4316)"
       clip-path="url(#clipPath13)" />
    <path
       id="path14"
       d="M 0,0 -23.177,71.329 -58.841,59.741"
       style="fill:#ffc400;fill-opacity:1;fill-rule:nonzero;stroke:none"
       transform="matrix(1.3333333,0,0,-1.3333333,658.77867,314.23507)"
       clip-path="url(#clipPath15)" />
    <path
       id="path16"
       d="m 0,0 -60.676,44.084 22.041,30.338"
       style="fill:#ffc400;fill-opacity:1;fill-rule:nonzero;stroke:none"
       transform="matrix(1.3333333,0,0,-1.3333333,658.77867,314.23507)"
       clip-path="url(#clipPath17)" />
    <path
       id="path18"
       d="M 0,0 60.677,44.084 38.634,74.422"
       style="fill:#ffc400;fill-opacity:1;fill-rule:nonzero;stroke:none"
       transform="matrix(1.3333333,0,0,-1.3333333,541.22133,314.23507)"
       clip-path="url(#clipPath19)" />
    <path
       id="path20"
       d="M 0,0 23.176,71.329 58.841,59.741"
       style="fill:#ffc400;fill-opacity:1;fill-rule:nonzero;stroke:none"
       transform="matrix(1.3333333,0,0,-1.3333333,541.22133,314.23507)"
       clip-path="url(#clipPath21)" />
    <path
       id="path22"
       d="m 0,0 60.676,-44.084 22.042,30.338"
       style="fill:#ffc400;fill-opacity:1;fill-rule:nonzero;stroke:none"
       transform="matrix(1.3333333,0,0,-1.3333333,504.89453,202.4316)"
       clip-path="url(#clipPath23)" />
    <path
       id="path24"
       d="M 0,0 H 75 V -37.5"
       style="fill:#ffc400;fill-opacity:1;fill-rule:nonzero;stroke:none"
       transform="matrix(1.3333333,0,0,-1.3333333,504.89453,202.4316)"
       clip-path="url(#clipPath25)" />
  </g>
</svg>
